dist/img/svg/ic_replace.svg

<svg width="25" height="25" viewBox="0 0 25 25" xmlns="http://www.w3.org/2000/svg">
<g clip-path="url(#clip0)">
<path d="M2.97276 16.5365L1.3335 17.4554C1.8405 18.3599 2.48146 19.1796 3.2385 19.8919L4.5262 18.5233C3.90871 17.9423 3.38606 17.2738 2.97276 16.5365Z" />
<path d="M5.86355 19.5475L4.87866 21.1479C5.76474 21.6932 6.72465 22.0968 7.73171 22.3475L8.18565 20.524C7.36627 20.32 6.58501 19.9915 5.86355 19.5475Z" />
<path d="M11.3929 20.6853C11.0058 20.7405 10.6097 20.7685 10.2151 20.7685C10.2148 20.7685 10.2145 20.7685 10.2145 20.7685H10.1908C10.0785 20.7685 9.96481 20.7662 9.85301 20.7617L9.77759 22.6395C9.91446 22.6449 10.0535 22.6477 10.1911 22.6477H10.2144C10.2147 22.6477 10.2151 22.6477 10.2154 22.6477C10.6981 22.6477 11.1836 22.6134 11.6582 22.5457L11.3929 20.6853Z" />
<path d="M14.1764 19.7594C13.8073 19.9613 13.4201 20.1359 13.0256 20.2786L13.6646 22.0458C14.1494 21.8706 14.625 21.6559 15.0783 21.408L14.1764 19.7594Z" />
<path d="M16.4632 17.915C16.1876 18.2329 15.885 18.5323 15.5642 18.8048L16.7808 20.237C17.174 19.903 17.5448 19.536 17.8828 19.1463L16.4632 17.915Z" />
<path d="M22.714 11.6235L20.3384 13.9995V12.5C20.3384 9.78949 19.2829 7.24113 17.3662 5.32446C15.4496 3.40784 12.9012 2.35226 10.1907 2.35226C7.4802 2.35226 4.93184 3.40779 3.01517 5.32442C1.0985 7.24104 0.0429688 9.78944 0.0429688 12.5C0.0429688 13.5429 0.20075 14.5715 0.511906 15.5574L2.30398 14.9917C2.05063 14.1891 1.92219 13.3507 1.92219 12.5C1.92219 7.9407 5.63141 4.23148 10.1907 4.23148C14.75 4.23148 18.4592 7.9407 18.4592 12.5V13.9841L16.0691 11.5999L14.7419 12.9303L19.4095 17.5864L24.043 12.9521L22.714 11.6235Z" />
</g>
<defs>
<clipPath id="clip0">
<rect width="24" height="24"  transform="translate(0.0429688 0.5)"/>
</clipPath>
</defs>
</svg>

<svg width="25" height="25" viewBox="0 0 25 25" xmlns="http://www.w3.org/2000/svg"><g clip-path="url(#clip0)"><path d="M2.973 16.537l-1.64.918a10.17 10.17 0 001.906 2.437l1.287-1.369a8.294 8.294 0 01-1.553-1.986zm2.891 3.01l-.985 1.6c.886.546 1.846.95 2.853 1.2l.454-1.823a8.21 8.21 0 01-2.322-.977zm5.529 1.138a8.37 8.37 0 01-1.178.084h-.024a8.44 8.44 0 01-.338-.007l-.075 1.878c.136.005.275.008.413.008h.024c.483 0 .969-.035 1.443-.102l-.265-1.86zm2.783-.925a8.414 8.414 0 01-1.15.519l.639 1.767c.484-.175.96-.39 1.413-.638l-.902-1.649zm2.287-1.845a8.337 8.337 0 01-.899.89l1.217 1.432a10.31 10.31 0 001.102-1.09l-1.42-1.232zm6.251-6.292L20.338 14v-1.5c0-2.71-1.055-5.259-2.972-7.176a10.081 10.081 0 00-7.175-2.972c-2.71 0-5.26 1.056-7.176 2.972A10.081 10.081 0 00.043 12.5c0 1.043.158 2.072.469 3.057l1.792-.565a8.267 8.267 0 01-.382-2.492c0-4.56 3.71-8.269 8.269-8.269s8.268 3.71 8.268 8.269v1.484L16.07 11.6l-1.327 1.33 4.668 4.656 4.633-4.634-1.329-1.329z"/></g><defs><clipPath id="clip0"><path transform="translate(.043 .5)" d="M0 0h24v24H0z"/></clipPath></defs></svg>
